X:1
T:Howard Carey
M:6/8
L:1/8
K:E
 G| c2 c c2 c| c2 c/2c/2 d2 d| c2 c G2 G| G3 z2 G|
M:5/8
 ccc-d e|
M:6/8
 ffd-d| ef| g g2 B2 c| d3 z2 d|
M:4/8
 ggg a|
M:6/8
 gg d- d2 d/2e/2| f2 d g2 g| g3 z2 d| f2 e d2 B| c d2- d d2| c2 B G2 F|\
 G3- G2||
